svgs/sharp-solid/pump.svg

<svg xmlns="http://www.w3.org/2000/svg" viewBox="0 0 640 512"><!--! Font Awesome Pro 6.6.0 by @fontawesome - https://fontawesome.com License - https://fontawesome.com/license (Commercial License) Copyright 2024 Fonticons, Inc. --><path d="M128 0l0 64 32 0 160 0 32 0 0-64L320 0 160 0 128 0zM64 176L0 176l0 32L0 384l0 32 64 0 0-32 0-176 0-32zm96 48l-64 0 0 160 224 0 0-288L160 96l0 128zM448 96l-96 64 0 288 96 64 192 0 0-416L448 96zm0 96l16 0 96 0 16 0 0 32-16 0-96 0-16 0 0-32zm0 96l16 0 96 0 16 0 0 32-16 0-96 0-16 0 0-32zm0 96l16 0 96 0 16 0 0 32-16 0-96 0-16 0 0-32z"/></svg>

<svg xmlns="http://www.w3.org/2000/svg" viewBox="0 0 640 512"><!--! Font Awesome Pro 6.4.0 by @fontawesome - https://fontawesome.com License - https://fontawesome.com/license (Commercial License) Copyright 2023 Fonticons, Inc. --><path d="M128 0V64h32H320h32V0H320 160 128zM64 176H0v32V384v32H64V384 208 176zm96 48H96V384H320V96H160V224zM448 96l-96 64V448l96 64H640V96H448zm0 96h16 96 16v32H560 464 448V192zm0 96h16 96 16v32H560 464 448V288zm0 96h16 96 16v32H560 464 448V384z"/></svg>
